2018/img/twitter.svg

<svg height="36" viewBox="0 0 45 36" width="45" xmlns="http://www.w3.org/2000/svg"><path d="m765.325 101.275c-1.256256 1.837509-2.774991 3.403119-4.55625 4.696875.01875.262501.028125.656247.028125 1.18125 0 2.437512-.356246 4.8703-1.06875 7.298437-.712504 2.428138-1.795305 4.757802-3.248438 6.989063-1.453132 2.231261-3.182802 4.204679-5.189062 5.920312-2.00626 1.715634-4.424986 3.08437-7.25625 4.106251-2.831264 1.02188-5.859359 1.532812-9.084375 1.532812-5.081275 0-9.731229-1.359361-13.95-4.078125.656253.075 1.387496.1125 2.19375.1125 4.218771 0 7.978108-1.293737 11.278125-3.88125-1.96876-.0375-3.731242-.642182-5.2875-1.814063-1.556258-1.17188-2.624997-2.667178-3.20625-4.485937.618753.09375 1.190622.140625 1.715625.140625.806254 0 1.603121-.103124 2.390625-.309375-2.100011-.431252-3.839056-1.476554-5.217187-3.135937-1.378132-1.659384-2.067188-3.585927-2.067188-5.779688v-.1125c1.275006.712504 2.643743 1.096875 4.10625 1.153125-1.237506-.825004-2.221871-1.903118-2.953125-3.234375s-1.096875-2.774992-1.096875-4.33125c0-1.650008.412496-3.178118 1.2375-4.584375 2.268761 2.793764 5.029671 5.029679 8.282812 6.707813 3.253142 1.678133 6.735919 2.610936 10.448438 2.798437-.150001-.712504-.225-1.406247-.225-2.08125 0-2.512513.885929-4.654679 2.657812-6.4265625 1.771884-1.7718839 3.91405-2.6578125 6.426563-2.6578125 2.625013 0 4.837491.9562404 6.6375 2.86875 2.04376-.393752 3.965616-1.1249947 5.765625-2.19375-.693753 2.1562608-2.02499 3.824994-3.99375 5.00625 1.743759-.187501 3.487491-.656246 5.23125-1.40625z" fill="#fff" fill-rule="evenodd" transform="translate(-721 -97)"/></svg>

<?xml version="1.0" encoding="UTF-8"?>
<svg width="45px" height="36px" viewBox="0 0 45 36" version="1.1" xmlns="http://www.w3.org/2000/svg" xmlns:xlink="http://www.w3.org/1999/xlink">
    <!-- Generator: Sketch 48.2 (47327) - http://www.bohemiancoding.com/sketch -->
    <title>twitter</title>
    <desc>Created with Sketch.</desc>
    <defs></defs>
    <g id="Homepage" stroke="none" stroke-width="1" fill="none" fill-rule="evenodd" transform="translate(-721.000000, -4296.000000)">
        <g id="Footer" transform="translate(0.000000, 4199.000000)" fill="#FFFFFF">
            <path d="M765.325,101.275 C764.068744,103.112509 762.550009,104.678119 760.76875,105.971875 C760.7875,106.234376 760.796875,106.628122 760.796875,107.153125 C760.796875,109.590637 760.440629,112.023425 759.728125,114.451562 C759.015621,116.8797 757.93282,119.209364 756.479687,121.440625 C755.026555,123.671886 753.296885,125.645304 751.290625,127.360937 C749.284365,129.076571 746.865639,130.445307 744.034375,131.467188 C741.203111,132.489068 738.175016,133 734.95,133 C729.868725,133 725.218771,131.640639 721,128.921875 C721.656253,128.996875 722.387496,129.034375 723.19375,129.034375 C727.412521,129.034375 731.171858,127.740638 734.471875,125.153125 C732.503115,125.115625 730.740633,124.510943 729.184375,123.339062 C727.628117,122.167182 726.559378,120.671884 725.978125,118.853125 C726.596878,118.946875 727.168747,118.99375 727.69375,118.99375 C728.500004,118.99375 729.296871,118.890626 730.084375,118.684375 C727.984364,118.253123 726.245319,117.207821 724.867188,115.548438 C723.489056,113.889054 722.8,111.962511 722.8,109.76875 L722.8,109.65625 C724.075006,110.368754 725.443743,110.753125 726.90625,110.809375 C725.668744,109.984371 724.684379,108.906257 723.953125,107.575 C723.221871,106.243743 722.85625,104.800008 722.85625,103.24375 C722.85625,101.593742 723.268746,100.065632 724.09375,98.659375 C726.362511,101.453139 729.123421,103.689054 732.376562,105.367188 C735.629704,107.045321 739.112481,107.978124 742.825,108.165625 C742.674999,107.453121 742.6,106.759378 742.6,106.084375 C742.6,103.571862 743.485929,101.429696 745.257812,99.6578125 C747.029696,97.8859286 749.171862,97 751.684375,97 C754.309388,97 756.521866,97.9562404 758.321875,99.86875 C760.365635,99.474998 762.287491,98.7437553 764.0875,97.675 C763.393747,99.8312608 762.06251,101.499994 760.09375,102.68125 C761.837509,102.493749 763.581241,102.025004 765.325,101.275 Z" id="twitter"></path>
        </g>
    </g>
</svg>
